src/img/movies/search_button.svg

<svg width="44" height="44" viewBox="0 0 44 44" fill="none" xmlns="http://www.w3.org/2000/svg">
<g id="find-3">
<path id="back__COLOR:main-2" d="M1.33214e-05 5C1.33214e-05 2.23858 2.23859 1.15847e-06 5.00001 1.15847e-06H39C41.7614 1.15847e-06 44 2.23858 44 5V39C44 41.7614 41.7614 44 39 44H5.00001C2.23859 44 1.33214e-05 41.7614 1.33214e-05 39V5Z" fill="#4285F4"/>
<line id="text__COLOR:invisible" x1="7.5" y1="7" x2="7.5" y2="37" stroke="white"/>
<path id="text__COLOR:invisible_2" d="M19 28L25 22L19 16" stroke="white" stroke-width="2" stroke-linecap="round" stroke-linejoin="round"/>
</g>
</svg>

<svg xmlns="http://www.w3.org/2000/svg" width="44" height="44" fill="none"><path fill="#4285F4" d="M0 5a5 5 0 0 1 5-5h34a5 5 0 0 1 5 5v34a5 5 0 0 1-5 5H5a5 5 0 0 1-5-5V5Z"/><path stroke="#fff" d="M7.5 7v30"/><path stroke="#fff" stroke-linecap="round" stroke-linejoin="round" stroke-width="2" d="m19 28 6-6-6-6"/></svg>
